X:3
T:Brown Haired Maiden, The
C:Traditional (RSPBA setting)
M:2/4
L:1/8
Q:1/2=56
K:D
e6
|:A2|{/Gdc}d3c1 {/gBd}B2{/e}A2|{/Gdc}d4 {/e}A3B1|{/Gdc}d3e1 {/gf}g2f2|{/gfg}f2e2 {/A}e2{/gf}g2|!
   {/a}f1a3 {/fg}f2a2|{/AGAG}A4{/Gdc}d3e1|{/g}f4{/gf}g2{/a}e2|{/Gdc}d4{/gdG}d2:|!
|: {/gf}g2 | {/a}f1a3 {/fg}f2a2|{/AGAG}A4{/Gdc}d3e1|{/g}f2d2 {/gf}g2f2|{/gfg}f2e2 {/A}e2{/gf}g2|!
[1 {/a}f1a3 {/fg}f2a2|{/AGAG}A4{/Gdc}d3e1|{/g}f4{/gf}g2{/a}e2|{/Gdc}d4{/gdG}d2:|!
[2 {/ag}a3g {/fg}f2a2|{/AGAG}A4{/Gdc}d3e1|{/g}f4{/gf}g2{/a}e2|{/Gdc}d4{/gdG}d2|]

